**harm	**harte	**timestamp	**phrase	**leadinstrument	**kern
*M12/8	*M12/8	*	*	*	*
*A-:	*A-:	*	*	*	*A-:
1r;	N	0	.	r	1r;
=1	=1	=1	=1	=1	=1
*>A2_intro	*>A2_intro	*>A2_intro	*>A2_intro	*>A2_intro	*>A2_intro
1.I	A-:maj	0.395	newline	r	1A- 1cc 1ee-
=2	=2	=2	=2	=2	=2
1.V	E-:maj	3.81	.	r	1E- 1g 1b-
=3	=3	=3	=3	=3	=3
1.I	A-:maj	7.225	.	r	1A- 1cc 1ee-
=4	=4	=4	=4	=4	=4
1.I	A-:maj	10.64	.	r	1A- 1cc 1ee-
=5	=5	=5	=5	=5	=5
*>A_verse	*>A_verse	*>A_verse	*>A_verse	*>A_verse	*>A_verse
1.I	A-:maj	14.055	newline	voice	1A- 1cc 1ee-
=6	=6	=6	=6	=6	=6
1.I	A-:maj	17.457	.	voice	1A- 1cc 1ee-
=7	=7	=7	=7	=7	=7
1.IV	D-:maj	20.859	.	voice	1D- 1f 1a-
=8	=8	=8	=8	=8	=8
1.IV	D-:maj	24.261	.	voice	1D- 1f 1a-
=9	=9	=9	=9	=9	=9
1.V	E-:maj	27.663	newline	voice	1E- 1g 1b-
=10	=10	=10	=10	=10	=10
1.V	E-:maj	31.017	.	voice	1E- 1g 1b-
=11	=11	=11	=11	=11	=11
1.I	A-:maj	34.371	.	voice	1A- 1cc 1ee-
=12	=12	=12	=12	=12	=12
1.V	E-:maj	37.725	.	voice	1E- 1g 1b-
=13	=13	=13	=13	=13	=13
1.I	A-:maj	41.079	newline	voice	1A- 1cc 1ee-
=14	=14	=14	=14	=14	=14
1.I	A-:maj	44.49	.	voice	1A- 1cc 1ee-
=15	=15	=15	=15	=15	=15
1.IV	D-:maj	47.901	.	voice	1D- 1f 1a-
=16	=16	=16	=16	=16	=16
1.IV	D-:maj	51.311	.	voice	1D- 1f 1a-
=17	=17	=17	=17	=17	=17
1.V	E-:maj	54.722	newline	voice	1E- 1g 1b-
=18	=18	=18	=18	=18	=18
1.V7	E-:7	58.163	.	voice	1E- 1g 1b- 1dd-
=19	=19	=19	=19	=19	=19
1.I	A-:maj	61.603	.	voice	1A- 1cc 1ee-
=20	=20	=20	=20	=20	=20
2.I	A-:maj	65.044	.	voice	2A- 2cc 2ee-
4.ii	B-:min	66.764	.	voice	4B- 4dd- 4ff
4.iii	C:min	67.624	.	voice	4C 4e- 4g
=21	=21	=21	=21	=21	=21
*>B_chorus	*>B_chorus	*>B_chorus	*>B_chorus	*>B_chorus	*>B_chorus
1.IV	D-:maj	68.484	newline	voice	1D- 1f 1a-
=22	=22	=22	=22	=22	=22
1.IV	D-:maj	71.941	.	voice	1D- 1f 1a-
=23	=23	=23	=23	=23	=23
1.I	A-:maj	75.399	.	voice	1A- 1cc 1ee-
=24	=24	=24	=24	=24	=24
1.I	A-:maj	78.856	.	voice	1A- 1cc 1ee-
=25	=25	=25	=25	=25	=25
1.IV	D-:maj	82.314	newline	voice	1D- 1f 1a-
=26	=26	=26	=26	=26	=26
1.IV	D-:maj	85.785	.	voice	1D- 1f 1a-
=27	=27	=27	=27	=27	=27
1.I	A-:maj	89.255	.	voice	1A- 1cc 1ee-
=28	=28	=28	=28	=28	=28
1.V7	E-:7	92.726	.	voice	1E- 1g 1b- 1dd-
=29	=29	=29	=29	=29	=29
*>A_verse	*>A_verse	*>A_verse	*>A_verse	*>A_verse	*>A_verse
1.I	A-:maj	96.197	newline	voice	1A- 1cc 1ee-
=30	=30	=30	=30	=30	=30
1.I	A-:maj	99.66	.	voice	1A- 1cc 1ee-
=31	=31	=31	=31	=31	=31
1.IV	D-:maj	103.123	.	voice	1D- 1f 1a-
=32	=32	=32	=32	=32	=32
1.IV	D-:maj	106.585	.	voice	1D- 1f 1a-
=33	=33	=33	=33	=33	=33
1.V7	E-:7	110.048	newline	voice	1E- 1g 1b- 1dd-
=34	=34	=34	=34	=34	=34
1.V7	E-:7	113.487	.	voice	1E- 1g 1b- 1dd-
=35	=35	=35	=35	=35	=35
1.I	A-:maj	116.927	.	voice	1A- 1cc 1ee-
=36	=36	=36	=36	=36	=36
1.I	A-:maj	120.366	.	voice	1A- 1cc 1ee-
=37	=37	=37	=37	=37	=37
1.I	A-:maj	123.805	newline	voice	1A- 1cc 1ee-
=38	=38	=38	=38	=38	=38
1.I	A-:maj	127.278	.	voice	1A- 1cc 1ee-
=39	=39	=39	=39	=39	=39
1.IV	D-:maj	130.751	.	voice	1D- 1f 1a-
=40	=40	=40	=40	=40	=40
1.IV	D-:maj	134.224	.	voice	1D- 1f 1a-
=41	=41	=41	=41	=41	=41
1.V	E-:maj	137.697	newline	voice	1E- 1g 1b-
=42	=42	=42	=42	=42	=42
1.V	E-:maj	141.19	.	voice	1E- 1g 1b-
=43	=43	=43	=43	=43	=43
4.I	A-:maj	144.683	.	voice	4A- 4cc 4ee-
4.IV	D-:maj	145.556	.	voice	4D- 4f 4a-
4.iii	C:min	146.43	.	voice	4C 4e- 4g
4.ii	B-:min	147.303	.	voice	4B- 4dd- 4ff
=44	=44	=44	=44	=44	=44
1.I	A-:maj	148.176	.	voice	1A- 1cc 1ee-
1r;	N	156.619	.	r	1r;
1r;	N	158.798	.	r	1r;
*-	*-	*-	*-	*-	*-
!!!OTL: Would It Make Any Difference To You
!!!COC: Etta James
!!!BillboardChartDate: 1963/01/12
!!!BillboardPeak: 64
!!!BillboardWeeksOnChart: 7
!!!SampleTargetRank: 81
!!!SampleActualRank: 79
!!!SampleID#: 0726
!!!RDF**harmony: **recip + pitch class of root + harmonic quality
!!!RDF**harte: Chris Harte's syntax, used by MIREX
!!!RDF**phrase: newline = linebreak in original McGill transcription
!!!RDF**timestamp: McGill audio timestamp in seconds
!!!RDF**leadinstrument: original McGill primary instrumentation annotation
!!!RDT: 2017/01/12/
!!!ENC: Nathaniel Condit-Schultz
!!!EST: Awating manual error checking and editing.
